docs/app/assets/images/logo-react.svg

<svg fill="none" height="64" viewBox="0 0 72 64" width="72" xmlns="http://www.w3.org/2000/svg" xmlns:xlink="http://www.w3.org/1999/xlink"><clipPath id="a"><path d="m0 0h72v64h-72z"/></clipPath><g clip-path="url(#a)"><path clip-rule="evenodd" d="m56.7636 19.9368c9.1407 2.7979 15.1027 7.3097 15.1027 12.0705 0 4.7462-5.9327 9.258-15.0149 12.0559 2.1241 9.2872 1.2012 16.6848-2.915 19.0579-.9668.5566-2.0801.8203-3.3106.8203-4.0284 0-9.3019-2.8418-14.634-7.7931-5.3322 4.9806-10.6057 7.8517-14.6341 7.8517-1.2304 0-2.3437-.2637-3.2959-.8203-4.1309-2.3731-5.0684-9.7853-2.959-19.1019-9.1408-2.7979-15.1028-7.3097-15.1028-12.0705 0-4.7461 5.93271-9.2433 15.0442-12.0558-2.1241-9.2873-1.2012-16.68485 2.9151-19.057932.9668-.556649 2.0801-.8203247 3.3106-.8203247v-.0146484c4.0283 0 9.3019 2.8418451 14.634 7.7930851 5.3321-4.98054 10.6056-7.85168 14.634-7.85168v.0146612c1.2101.0021111 2.3183.2658998 3.2666.8203118 4.131 2.373087 5.0685 9.785327 2.9591 19.101827zm-6.2404-16.67013c-3.0466.00778-7.5224 2.43877-12.2902 6.87023 2.0655 2.1533 4.1163 4.6143 6.0938 7.3243 3.296.3516 6.4308.8936 9.3019 1.5967.3223-1.4795.586-2.9297.7471-4.3067.6739-5.59579-.1904-9.94644-2.1826-11.08904-.4541-.24902-.9961-.38086-1.67-.38086zm-16.9485 6.88483c-4.7754-4.40923-9.2726-6.82625-12.3048-6.82625v.01464c-.6739 0-1.2452.11719-1.6846.38087-1.9776 1.15724-2.8272 5.50789-2.1387 11.10364.1757 1.3624.4248 2.7833.7617 4.2482 2.8711-.7178 6.0059-1.2598 9.3165-1.6114 1.9483-2.71 3.9991-5.1563 6.0499-7.3097zm17.2415 17.8714c.7617-1.9483 1.4356-3.8966 1.9776-5.7862-1.919-.4688-3.9259-.8497-6.006-1.1573.7178 1.1133 1.4356 2.2559 2.1094 3.4278.6885 1.1719 1.3184 2.3438 1.919 3.5157zm-8.2618 15.4104c1.2158-1.7432 2.3877-3.6182 3.5303-5.5958 1.0986-1.919 2.1094-3.8819 3.0323-5.8448-.9229-1.9629-1.9337-3.9112-3.047-5.8302-1.1426-1.9629-2.3291-3.8233-3.5449-5.5665-2.168-.1758-4.38-.2783-6.5919-.2783-2.2266 0-4.4386.1025-6.6212.293-1.2159 1.7432-2.3878 3.6182-3.5304 5.5958-1.0986 1.9189-2.124 3.8818-3.0322 5.8448.9228 1.9629 1.9336 3.9112 3.0469 5.8301 1.1426 1.963 2.3291 3.8233 3.545 5.5665 2.168.1758 4.3799.2783 6.5919.2783 2.2266 0 4.4385-.1025 6.6212-.2929zm10.2833-1.67c-.5566-1.9043-1.2305-3.8672-2.0215-5.8301-.6006 1.1719-1.2305 2.3584-1.9043 3.5303-.6739 1.1865-1.3916 2.3438-2.1094 3.4717 2.0947-.3076 4.1162-.7031 6.0352-1.1719zm-20.9476 5.1124c1.3477 1.7139 2.71 3.2813 4.0724 4.6876 1.3476-1.4063 2.71-2.9737 4.0283-4.6876-1.333.0733-2.6953.1026-4.0723.1026-1.3623 0-2.71-.044-4.0284-.1026zm-12.8322-5.0977c1.919.4687 3.9258.8496 6.006 1.1572-.7178-1.1133-1.421-2.2559-2.1094-3.4278-.6885-1.1719-1.3184-2.3437-1.919-3.5156-.7618 1.9482-1.4356 3.8965-1.9776 5.7862zm20.9036-24.6391c-1.3476-1.7139-2.71-3.2813-4.0723-4.6875-1.3477 1.4062-2.71 2.9736-4.0284 4.6875 1.3331-.0732 2.6954-.1025 4.0724-.1025 1.3623 0 2.71.0439 4.0283.1025zm-17.0217 7.4123c.6738-1.1866 1.3916-2.3438 2.1094-3.4718-2.0947.3076-4.1163.7032-6.0352 1.1573.5566 1.9043 1.2304 3.8672 2.0215 5.8301.6006-1.1719 1.2305-2.3438 1.9043-3.5156zm-19.6878 7.4561c0 2.2999 3.35455 5.2003 8.5402 7.4122 1.2744.542 2.6514 1.0401 4.1016 1.4942.8203-2.8565 1.9043-5.8302 3.252-8.8771-1.3623-3.0616-2.461-6.0499-3.2959-8.921-1.421.4541-2.7979.9375-4.0577 1.4795-5.18565 2.1973-8.5402 5.1124-8.5402 7.4122zm14.2385 17.2561c-.6738 5.5958.1904 9.9465 2.1827 11.0891.4394.249.9961.3808 1.6552.3955 3.047 0 7.5295-2.4317 12.3049-6.8702-2.0654-2.1534-4.1162-4.6144-6.0938-7.3244-3.296-.3515-6.4308-.8935-9.3019-1.5967-.3223 1.4795-.586 2.9298-.7471 4.3067zm34.7906 11.0305c1.9775-1.1573 2.8272-5.5079 2.1387-11.1037-.1612-1.3623-.4248-2.7832-.7618-4.2628-2.8711.7178-6.0059 1.2598-9.3165 1.6114-1.9483 2.71-3.9991 5.1563-6.0499 7.3097 4.7755 4.4092 9.2726 6.8263 12.3049 6.8263.6738 0 1.2451-.1172 1.6846-.3809zm3.7207-19.3948c1.4209-.4541 2.7979-.9376 4.0577-1.4796 5.1856-2.1973 8.5402-5.1123 8.5548-7.4122 0-2.2998-3.3545-5.2003-8.5401-7.4122-1.2891-.542-2.6661-1.0401-4.1163-1.4942-.8203 2.8565-1.9043 5.8302-3.252 8.8771 1.3623 3.0616 2.461 6.0499 3.2959 8.9211zm-13.3889-8.8917c0 3.6972-2.9972 6.6944-6.6944 6.6944s-6.6944-2.9972-6.6944-6.6944c0-3.6973 2.9972-6.6945 6.6944-6.6945s6.6944 2.9972 6.6944 6.6945z" fill="#61dafb" fill-rule="evenodd"/></g></svg>

<svg width="72" height="64" viewBox="0 0 72 64" fill="none" xmlns="http://www.w3.org/2000/svg">
<g clip-path="url(#clip0)">
<path fill-rule="evenodd" clip-rule="evenodd" d="M56.7636 19.9368C65.9043 22.7347 71.8663 27.2465 71.8663 32.0073C71.8663 36.7535 65.9336 41.2653 56.8514 44.0632C58.9755 53.3504 58.0526 60.748 53.9364 63.1211C52.9696 63.6777 51.8563 63.9414 50.6258 63.9414C46.5974 63.9414 41.3239 61.0996 35.9918 56.1483C30.6596 61.1289 25.3861 64 21.3577 64C20.1273 64 19.014 63.7363 18.0618 63.1797C13.9309 60.8066 12.9934 53.3944 15.1028 44.0778C5.962 41.2799 0 36.7681 0 32.0073C0 27.2612 5.93271 22.764 15.0442 19.9515C12.9201 10.6642 13.843 3.26665 17.9593 0.893568C18.9261 0.336919 20.0394 0.0732433 21.2699 0.0732433V0.0585949C25.2982 0.0585949 30.5718 2.90044 35.9039 7.85168C41.236 2.87114 46.5095 0 50.5379 0V0.0146612C51.748 0.0167723 52.8562 0.280561 53.8045 0.834973C57.9355 3.20806 58.873 10.6203 56.7636 19.9368ZM50.5232 3.26667C47.4766 3.27445 43.0008 5.70544 38.233 10.1369C40.2985 12.2902 42.3493 14.7512 44.3268 17.4612C47.6228 17.8128 50.7576 18.3548 53.6287 19.0579C53.951 17.5784 54.2147 16.1282 54.3758 14.7512C55.0497 9.15541 54.1854 4.80476 52.1932 3.66216C51.7391 3.41314 51.1971 3.2813 50.5232 3.2813V3.26667ZM33.5747 10.1515C28.7993 5.74227 24.3021 3.32525 21.2699 3.32525V3.33989C20.596 3.33989 20.0247 3.45708 19.5853 3.72076C17.6077 4.878 16.7581 9.22865 17.4466 14.8244C17.6223 16.1868 17.8714 17.6077 18.2083 19.0726C21.0794 18.3548 24.2142 17.8128 27.5248 17.4612C29.4731 14.7512 31.5239 12.3049 33.5747 10.1515ZM50.8162 28.0229C51.5779 26.0746 52.2518 24.1263 52.7938 22.2367C50.8748 21.7679 48.8679 21.387 46.7878 21.0794C47.5056 22.1927 48.2234 23.3353 48.8972 24.5072C49.5857 25.6791 50.2156 26.851 50.8162 28.0229ZM42.5544 43.4333C43.7702 41.6901 44.9421 39.8151 46.0847 37.8375C47.1833 35.9185 48.1941 33.9556 49.117 31.9927C48.1941 30.0298 47.1833 28.0815 46.07 26.1625C44.9274 24.1996 43.7409 22.3392 42.5251 20.596C40.3571 20.4202 38.1451 20.3177 35.9332 20.3177C33.7066 20.3177 31.4946 20.4202 29.312 20.6107C28.0961 22.3539 26.9242 24.2289 25.7816 26.2065C24.683 28.1254 23.6576 30.0883 22.7494 32.0513C23.6722 34.0142 24.683 35.9625 25.7963 37.8814C26.9389 39.8444 28.1254 41.7047 29.3413 43.4479C31.5093 43.6237 33.7212 43.7262 35.9332 43.7262C38.1598 43.7262 40.3717 43.6237 42.5544 43.4333ZM52.8377 41.7633C52.2811 39.859 51.6072 37.8961 50.8162 35.9332C50.2156 37.1051 49.5857 38.2916 48.9119 39.4635C48.238 40.65 47.5203 41.8073 46.8025 42.9352C48.8972 42.6276 50.9187 42.2321 52.8377 41.7633ZM31.8901 46.8757C33.2378 48.5896 34.6001 50.157 35.9625 51.5633C37.3101 50.157 38.6725 48.5896 39.9908 46.8757C38.6578 46.949 37.2955 46.9783 35.9185 46.9783C34.5562 46.9783 33.2085 46.9343 31.8901 46.8757ZM19.0579 41.778C20.9769 42.2467 22.9837 42.6276 25.0639 42.9352C24.3461 41.8219 23.6429 40.6793 22.9545 39.5074C22.266 38.3355 21.6361 37.1637 21.0355 35.9918C20.2737 37.94 19.5999 39.8883 19.0579 41.778ZM39.9615 17.1389C38.6139 15.425 37.2515 13.8576 35.8892 12.4514C34.5415 13.8576 33.1792 15.425 31.8608 17.1389C33.1939 17.0657 34.5562 17.0364 35.9332 17.0364C37.2955 17.0364 38.6432 17.0803 39.9615 17.1389ZM22.9398 24.5512C23.6136 23.3646 24.3314 22.2074 25.0492 21.0794C22.9545 21.387 20.9329 21.7826 19.014 22.2367C19.5706 24.141 20.2444 26.1039 21.0355 28.0668C21.6361 26.8949 22.266 25.723 22.9398 24.5512ZM3.252 32.0073C3.252 34.3072 6.60655 37.2076 11.7922 39.4195C13.0666 39.9615 14.4436 40.4596 15.8938 40.9137C16.7141 38.0572 17.7981 35.0835 19.1458 32.0366C17.7835 28.975 16.6848 25.9867 15.8499 23.1156C14.4289 23.5697 13.052 24.0531 11.7922 24.5951C6.60655 26.7924 3.252 29.7075 3.252 32.0073ZM17.4905 49.2634C16.8167 54.8592 17.6809 59.2099 19.6732 60.3525C20.1126 60.6015 20.6693 60.7333 21.3284 60.748C24.3754 60.748 28.8579 58.3163 33.6333 53.8778C31.5679 51.7244 29.5171 49.2634 27.5395 46.5534C24.2435 46.2019 21.1087 45.6599 18.2376 44.9567C17.9153 46.4362 17.6516 47.8865 17.4905 49.2634ZM52.2811 60.2939C54.2586 59.1366 55.1083 54.786 54.4198 49.1902C54.2586 47.8279 53.995 46.407 53.658 44.9274C50.7869 45.6452 47.6521 46.1872 44.3415 46.5388C42.3932 49.2488 40.3424 51.6951 38.2916 53.8485C43.0671 58.2577 47.5642 60.6748 50.5965 60.6748C51.2703 60.6748 51.8416 60.5576 52.2811 60.2939ZM56.0018 40.8991C57.4227 40.445 58.7997 39.9615 60.0595 39.4195C65.2451 37.2222 68.5997 34.3072 68.6143 32.0073C68.6143 29.7075 65.2598 26.807 60.0742 24.5951C58.7851 24.0531 57.4081 23.555 55.9579 23.1009C55.1376 25.9574 54.0536 28.9311 52.7059 31.978C54.0682 35.0396 55.1669 38.0279 56.0018 40.8991ZM42.6129 32.0074C42.6129 35.7046 39.6157 38.7018 35.9185 38.7018C32.2213 38.7018 29.2241 35.7046 29.2241 32.0074C29.2241 28.3101 32.2213 25.3129 35.9185 25.3129C39.6157 25.3129 42.6129 28.3101 42.6129 32.0074Z" fill="#61DAFB"/>
</g>
<defs>
<clipPath id="clip0">
<rect width="72" height="64" fill="white"/>
</clipPath>
</defs>
</svg>
